svg/induction.svg

<svg xmlns="http://www.w3.org/2000/svg" viewBox="0 0 24 24"><path d="M23 2c-2.25 0-4.25.61-5.81 1.33C15.79 2.61 14 2 12 2s-3.79.61-5.19 1.33C5.25 2.61 3.25 2 1 2v2c1.36 0 2.61.27 3.71.64-.68.51-1.08.9-1.12.95C3.21 5.96 3 6.47 3 7v11c0 2.21 1.79 4 4 4s4-1.79 4-4V7c0-.58-.25-1.12-.68-1.5-.06-.05-.52-.45-1.32-.96.92-.32 1.92-.54 3-.54s2.08.22 3 .54c-.8.51-1.26.91-1.32.96-.43.38-.68.92-.68 1.5v11c0 2.21 1.79 4 4 4s4-1.79 4-4V7c0-.53-.21-1.04-.59-1.41-.04-.05-.44-.44-1.12-.95C20.39 4.27 21.64 4 23 4zM9 7v11c0 1.11-.89 2-2 2s-2-.89-2-2V7s.7-.69 1.87-1.42C8.2 6.31 9 7 9 7m10 0v11c0 1.11-.89 2-2 2s-2-.89-2-2V7s.8-.69 2.13-1.42C18.3 6.31 19 7 19 7"/></svg>

<svg xmlns="http://www.w3.org/2000/svg" id="mdi-induction" viewBox="0 0 24 24"><path d="M23 2C20.75 2 18.75 2.61 17.19 3.33C15.79 2.61 14 2 12 2S8.21 2.61 6.81 3.33C5.25 2.61 3.25 2 1 2V4C2.36 4 3.61 4.27 4.71 4.64C4.03 5.15 3.63 5.54 3.59 5.59C3.21 5.96 3 6.47 3 7V18C3 20.21 4.79 22 7 22S11 20.21 11 18V7C11 6.42 10.75 5.88 10.32 5.5C10.26 5.45 9.8 5.05 9 4.54C9.92 4.22 10.92 4 12 4S14.08 4.22 15 4.54C14.2 5.05 13.74 5.45 13.68 5.5C13.25 5.88 13 6.42 13 7V18C13 20.21 14.79 22 17 22S21 20.21 21 18V7C21 6.47 20.79 5.96 20.41 5.59C20.37 5.54 19.97 5.15 19.29 4.64C20.39 4.27 21.64 4 23 4V2M9 7V18C9 19.11 8.11 20 7 20S5 19.11 5 18V7C5 7 5.7 6.31 6.87 5.58C8.2 6.31 9 7 9 7M19 7V18C19 19.11 18.11 20 17 20S15 19.11 15 18V7C15 7 15.8 6.31 17.13 5.58C18.3 6.31 19 7 19 7Z" /></svg>
